public/images/logo/unique.svg

<svg width="48" height="48" viewBox="0 0 48 48" fill="none" xmlns="http://www.w3.org/2000/svg">
<path fill-rule="evenodd" clip-rule="evenodd" d="M28.8714 46.8145C28.8714 47.4721 29.4739 47.9645 30.1067 47.7964C40.4039 45.0621 48 35.5765 48 24.295C48 10.8772 37.2548 0 24 0C10.7452 0 0 10.8772 0 24.295C0 35.8359 7.94939 45.4973 18.6077 47.9743C19.2333 48.1197 19.8145 47.6299 19.8145 46.9848V41.2291C19.8145 40.7641 19.5053 40.3588 19.0651 40.2153C15.6896 39.1143 12.9595 37.1648 10.8748 34.3668C8.65357 31.3645 7.54295 27.8857 7.54295 23.9304C7.54295 18.7042 9.48262 14.4232 13.3619 11.0874C16.5843 8.3234 20.2525 6.94141 24.3664 6.94141C29.6692 6.94141 33.9474 8.88732 37.2011 12.7791C39.829 15.9243 41.143 19.5541 41.143 23.6683C41.143 27.703 39.9776 31.3169 37.6469 34.5097C35.6921 37.2059 33.0162 39.1077 29.6193 40.2151C29.1797 40.3584 28.8714 40.7634 28.8714 41.2276V46.8145ZM28.5664 27.5884C28.5664 27.0157 28.1043 26.5514 27.5342 26.5514H21.1752C20.6051 26.5514 20.143 27.0157 20.143 27.5884V27.9818C20.143 28.8612 19.1505 29.2965 18.6551 28.5716C17.7699 27.2763 17.3273 25.7451 17.3273 23.978C17.3273 21.9606 18.0234 20.2133 19.4156 18.736C20.8078 17.2587 22.458 16.52 24.3664 16.52C26.2592 16.52 27.9016 17.2587 29.2938 18.736C30.686 20.2133 31.3821 21.9606 31.3821 23.978C31.3821 25.6914 30.9447 27.2012 30.0698 28.5074C29.5759 29.245 28.5664 28.8132 28.5664 27.9243V27.5884Z" fill="#00BFFF"/>
</svg>

<svg width="48" height="48" fill="none" xmlns="http://www.w3.org/2000/svg"><path fill-rule="evenodd" clip-rule="evenodd" d="M28.871 46.815c0 .657.603 1.15 1.236.981C40.404 45.062 48 35.576 48 24.295 48 10.877 37.255 0 24 0S0 10.877 0 24.295c0 11.54 7.95 21.202 18.608 23.68.625.145 1.206-.345 1.206-.99v-5.756c0-.465-.309-.87-.749-1.014-3.375-1.1-6.106-3.05-8.19-5.848-2.221-3.002-3.332-6.481-3.332-10.437 0-5.226 1.94-9.507 5.819-12.843 3.222-2.764 6.89-4.146 11.004-4.146 5.303 0 9.581 1.946 12.835 5.838 2.628 3.145 3.942 6.775 3.942 10.89 0 4.034-1.165 7.648-3.496 10.84-1.955 2.697-4.63 4.599-8.028 5.706-.44.143-.748.548-.748 1.013v5.587Zm-.305-19.227c0-.572-.462-1.037-1.032-1.037h-6.359c-.57 0-1.032.465-1.032 1.037v.394c0 .88-.992 1.315-1.488.59-.885-1.296-1.328-2.827-1.328-4.594 0-2.017.696-3.765 2.089-5.242 1.392-1.477 3.042-2.216 4.95-2.216 1.893 0 3.536.739 4.928 2.216 1.392 1.477 2.088 3.225 2.088 5.242 0 1.713-.437 3.223-1.312 4.53-.494.737-1.504.305-1.504-.584v-.336Z" fill="#00BFFF"/></svg>
